X: 118202
T: TIMOUR THE TARTER
Q: "Reel."
R: Reel.
%R: reel
B: James Kerr "Merry Melodies" v.1 p.18 s.2 #2
Z: 2017 John Chambers <jc:trillian.mit.edu>
M: C
L: 1/8
K: A
uE |!segno!\
A2 (3(cBA) ve>vA (3(cBA) | eAaA gAfA |\
A2 (3(cBA) ve>vA (3(cBA) | BEdE cEBD |\
A2 (3(cBA) ve>vA (3(cBA) | eAaA gAfA |\
efec eaec | BABc A2A2 ||
E2 (3(GFE) B>E (3(GFE) | BEdE cEBE |\
A2 (3(cBA) e>A (3(cBA) | eAaA gAfA |\
e^dec agaf | e^dec agaf |\
ecag fedc | BAGF EFGE |]

%%sep 1 1 500
%%sep 1 1 500

